X: 613
T: Dr. Taylor
R: reel
%S: s:3 b:16(4+4+4+4)
B: Francis O'Neill: "The Dance Music of Ireland" (1907) #613
Z: Frank Nordberg - http://www.musicaviva.com
F: http://www.musicaviva.com/abc/tunes/ireland/oneill-1001/0613/oneill-1001-0613-1.abc
%m: Tn = (3n/o/n/
M: C|
L: 1/8
K: G
"^A"\
[| G2FG EGDF | G2Bd cBAF | G2FG EGDc | (3(Bcd) gB cBAF || G2FG EGDF |
| GFGA (3(Bcd) ef | gedc BGHG2 "^B"|[| gdBd edBd | cABG AGEG | (Tgf)gd edBd |
| dedc BGG z || (3(gfe) fd edBd | (3(cBA) BG AGEG | (3(DEF) GA (3(Bcd) ef | (3(gab) af ged"_D.C."B |]
